src/Assets/Logos/Bird.svg

<svg width="59" height="33" viewBox="0 0 59 33" fill="none" xmlns="http://www.w3.org/2000/svg">
<g clip-path="url(#clip0_585_62)">
<path d="M57.4401 23.0405C49.4101 27.3705 14.3401 38.0205 8.64013 28.9605C6.78013 25.7905 8.40013 21.3505 11.4001 19.6205C21.1501 13.9305 33.5801 13.6905 42.0701 5.81047C43.5101 4.40047 44.6601 2.67047 45.2701 0.730469L45.5101 0.800469C42.9301 9.07047 33.5801 12.1805 26.3001 15.1005C22.4701 16.5505 18.5401 17.8205 14.9501 19.5805C13.2101 20.4705 11.4101 21.5405 10.5801 22.9705C4.84013 36.9605 38.9601 26.2105 44.4301 24.2105C48.0601 22.9005 51.9901 21.5705 55.2901 19.6405L57.4601 23.0205L57.4401 23.0405Z" fill="#6D5BE0"/>
<path d="M57.26 26.9002L57.8 23.3402L58.34 19.7702L54.8 19.2302L51.25 18.7002V18.7102L56.17 21.1602L57.25 26.9002H57.26Z" fill="#6D5BE0"/>
<path d="M45.3599 0C47.0299 15.17 28.9999 24.26 15.8999 22.66C19.3199 22.3 22.6699 21.67 25.8599 20.61C35.3399 17.59 43.8999 10.28 45.3499 0H45.3599Z" fill="#6D5BE0"/>
<path d="M38.3601 18.29C36.8001 22.18 32.5501 24.71 28.5101 25.35C24.2501 25.46 19.4001 25.17 15.8501 22.5C17.9401 23.08 20.0001 23.34 22.0801 23.43C24.0001 23.51 26.6601 23.41 28.2801 23.37C31.8901 22.73 35.7001 20.95 38.3601 18.29Z" fill="#6D5BE0"/>
<path d="M26.6098 26.99C24.1998 30.38 17.2998 26.33 15.8398 23.46C17.2098 24 19.9498 25.08 21.3198 25.61C22.9798 26.19 24.8598 27.19 26.6098 26.99Z" fill="#6D5BE0"/>
<path d="M7.02999 21.7596C2.22999 20.5096 1.31999 15.4496 5.07999 12.3396C8.66999 9.28958 13.53 10.8396 14.46 15.4996C12.65 11.9496 9.14999 10.6496 5.92999 13.3596C2.62999 16.1396 3.52999 19.6996 7.02999 21.7596Z" fill="#6D5BE0"/>
<path d="M2.3 15.0396C1.89 14.3896 0.38 11.9896 0 11.3896C0.68 11.5096 3.44 12.0096 4.17 12.1396C4.17 12.1496 1.01 12.5696 1.01 12.5696L1.48 11.8696C1.48 11.8696 2.33 15.0396 2.31 15.0296L2.3 15.0396Z" fill="#6D5BE0"/>
</g>
<defs>
<clipPath id="clip0_585_62">
<rect width="58.34" height="32.5" fill="white"/>
</clipPath>
</defs>
</svg>

<?xml version="1.0" encoding="UTF-8"?>
<svg id="Layer_2" data-name="Layer 2" xmlns="http://www.w3.org/2000/svg" viewBox="0 0 58.34 32.5">
  <g id="Layer_1-2" data-name="Layer 1">
    <path d="m57.44,23.04c-8.03,4.33-43.1,14.98-48.8,5.92-1.86-3.17-.24-7.61,2.76-9.34,9.75-5.69,22.18-5.93,30.67-13.81,1.44-1.41,2.59-3.14,3.2-5.08l.24.07c-2.58,8.27-11.93,11.38-19.21,14.3-3.83,1.45-7.76,2.72-11.35,4.48-1.74.89-3.54,1.96-4.37,3.39-5.74,13.99,28.38,3.24,33.85,1.24,3.63-1.31,7.56-2.64,10.86-4.57,0,0,2.17,3.38,2.17,3.38h0Z"/>
    <polygon points="57.26 26.9 57.8 23.34 58.34 19.77 54.8 19.23 51.25 18.7 51.25 18.71 51.25 18.71 56.17 21.16 57.25 26.9 57.26 26.9 57.26 26.9"/>
    <path d="m45.36,0c1.67,15.17-16.36,24.26-29.46,22.66,3.42-.36,6.77-.99,9.96-2.05,9.48-3.02,18.04-10.33,19.49-20.61h0Z"/>
    <path d="m38.36,18.29c-1.56,3.89-5.81,6.42-9.85,7.06-4.26.11-9.11-.18-12.66-2.85,2.09.58,4.15.84,6.23.93,1.92.08,4.58-.02,6.2-.06,3.61-.64,7.42-2.42,10.08-5.08h0Z"/>
    <path d="m26.61,26.99c-2.41,3.39-9.31-.66-10.77-3.53,1.37.54,4.11,1.62,5.48,2.15,1.66.58,3.54,1.58,5.29,1.38h0Z"/>
    <path d="m7.03,21.76c-4.8-1.25-5.71-6.31-1.95-9.42,3.59-3.05,8.45-1.5,9.38,3.16-1.81-3.55-5.31-4.85-8.53-2.14-3.3,2.78-2.4,6.34,1.1,8.4h0Z"/>
    <path d="m2.3,15.04c-.41-.65-1.92-3.05-2.3-3.65.68.12,3.44.62,4.17.75,0,.01-3.16.43-3.16.43,0,0,.47-.7.47-.7,0,0,.85,3.17.83,3.16h0Z"/>
  </g>
</svg>
